X:731
T:Tobin's
M:6/8
L:1/8
K:D
|:F|"D"DFA dcd|"A"ecA efg|"D"fdf "G"gfg|"A"ecA GFE|"D"DFA dcd|\
"A"ecA efg|"D"fdf "A"gec|edc "D"d2:|
|:e|"D"fdf "G"gfg|"A"efg efg|"D"fdf "G"gfg|"A"ecA GFE|"D"DFA dcd|\
"A"ecA efg|"D"fef "A"gec|edc "D"d2:|
